X: 777
T: Aires De Pontevedra
R: reel
M: 4/4
K: Dmajor
EF|:GFGE FDEF|GFGE FDEF|AFGE FDEF|GFGE FDFA|
=c4 =cBce|d=cBA GFGA|G4 GDGA|d=cBA GFGA|F2 FD FDFA|
M:6/4
d=cBA GFGA E4|[M:4/4]FAFD FAFD|EGEC E2 A2|1 D4 D2 EF:|2 D4 D2 A2||
|:d2 A2 F2 GA|BAGF E3 F|GAGF E2 FG|AGFE D2 A2|
d2 A2 F2 GA|BAGF E3 F|GFGA BAFD|1 [M:6/4]AGEC D4 D2 A2:|2 [M:6/4]AGEC D4 D4||

